X:501
T: Der Schweizermann (205a), S. 447
N: T0389
O: Luxemburg
S: Singendes Volk, Esch-Alzette, 1937 posth.]
N: Heffingen, fff Nikolaus Ewen, 29.8.1934
N: (205b)- Straen, fff Witry, Liederheft um 1850
R: Tanz-, Spiellied]
M: 2/4
L: 1/8
K: G
D2 | GGGG | G2A2 | G2D2 | D2z2
A2A2 | A2c2 | BGGG | AGGG | AGFE | DDDD | G2z2
D2DD | G2z2 | D2DD | G2z2
G2B2 | d2z2 | B2dB | B2B2 | A2AA | G2

